svgs/sharp-regular/cross.svg

<svg xmlns="http://www.w3.org/2000/svg" viewBox="0 0 384 512"><!--! Font Awesome Pro 6.6.0 by @fontawesome - https://fontawesome.com License - https://fontawesome.com/license (Commercial License) Copyright 2024 Fonticons, Inc. --><path d="M136 0L112 0l0 24 0 88-88 0L0 112l0 24L0 248l0 24 24 0 88 0 0 216 0 24 24 0 112 0 24 0 0-24 0-216 88 0 24 0 0-24 0-112 0-24-24 0-88 0 0-88 0-24L248 0 136 0zm24 136l0-88 64 0 0 88 0 24 24 0 88 0 0 64-88 0-24 0 0 24 0 216-64 0 0-216 0-24-24 0-88 0 0-64 88 0 24 0 0-24z"/></svg>

<svg xmlns="http://www.w3.org/2000/svg" viewBox="0 0 384 512"><!--! Font Awesome Pro 6.4.2 by @fontawesome - https://fontawesome.com License - https://fontawesome.com/license (Commercial License) Copyright 2023 Fonticons, Inc. --><path d="M136 0H112V24v88H24 0v24V248v24H24h88V488v24h24H248h24V488 272h88 24V248 136 112H360 272V24 0H248 136zm24 136V48h64v88 24h24 88v64H248 224v24V464H160V248 224H136 48V160h88 24V136z"/></svg>
